X:180
T:Chit Chat. THO5.180
M:6/8
L:1/8
B:Thompson's Complete Collection of 200 Favourite Dances Vol.5
F:https://www.libraryofdance.org/manuals/1780c-Thompson-Compleat-5.pdf
Z:vmp. Peter Dunk 2024
Q:3/8=100
K:A
e3 d3|cec A3|a2e fed|cBA GFE|
e3d3|cec A3|a2f g2e|Be^d e3:|
|:BGE cAE|dcB cBA|ecA fdA|=gfe fed|
fga edc|BcA GFE|a2e fed|cdB A3:|
W:
W:Right hands across, left hands back again ./.
W:Change sides & back again ./:
W:Lead down the middle, up again & cast off :/.
W:Allemand with your Partner :/:

